X:1
T:D minor Stephen Jenks, 1805 Revised by Jenks in 1818
T:Isaac Watts, 1719 (Psalm 90)     86. 86. (C. M.)
T:Sorrow's Tear
T:Transcribed fromJenks' The Harmony of Zion, 1818.
%%score [ 1 2 3 4 ]
L:1/8
Q:1/4=150
M:3/2
K:F
V:1 treble nm="Tr." snm="Tr."
V:2 treble nm="C." snm="C."
V:3 treble-8 nm="T." snm="T."
V:4 bass nm="B." snm="B."
V:1
 A4 | A8 (A2 c2) | c8 A4 | d8 (c2 A2) | A8 A4 | A8 F4 | =B8 G4 | A8 (A2 c2) | c8 z4 |: A4 A4 A4 | %10
w: 1.~Death,|like an *|o- ver-|flo- wing *|stream, Sweeps|us a-|way; our|life's a *|dream,|An emp- ty|
 A8 (A2 G2) | F8 =B4 | A8 (A2 c2) | c8 (A2 F2) | E8 (E2 F2) | D8 ^C4 | D8 :| %17
w: tale, a *|mor- ning|flower, Cut *|down and *|with- ered *|in an|hour.|
V:2
 D4 | D8 C4 | C8 (D2 E2) | F8 (C2 E2) | F8 F4 | F8 (E2 D2) | G8 E4 | F8 F4 | E8 z4 |: D4 D4 E4 | %10
w: 2.~Our|age to|sev- enty *|years is *|set; How|short the *|time! how|frail the|state!|And if to|
 D8 D4 | (F3 E D4) G4 | E8 (E2 F2) | F8 C4 | C8 (C2 D2) | A8 A4 | A8 :| %17
w: eigh- ty|we~ _ _ ar-|rive, We *|ra- ther|sigh and *|groan than|live.|
V:3
 d4 | A8 (c2 A2) | G8 (F2 G2) | A8 (f2 e2) | d8 (A2 c2) | c8 (c2 d2) | d8 e4 | (f3 e d4) (c2 A2) | %8
w: 3.~But|O how *|oft thy *|wrath ap- *|pears, And *|cuts off *|our ex-|pec- * * ted *|
 G8 z4 |: F4 D4 ^C4 | D8 A4 | (d3 e f4) (e2 d2) | ^c8 (c2 d2) | A8 (A2 c2) | G8 (G2 A2) | F8 E4 | %16
w: years!|Thy weath a-|wakes our|hum- * * ble *|dread; We *|fear the *|power that *|strikes us|
 D8 :| %17
w: dead.|
V:4
 D,4 | D,8 A,,4 | C,8 (F,2 E,2) | D,8 A,,4 | D,8 F,4 | F,8 A,4 | G,8 C,4 | F,8 F,4 | C,8 z4 |: %9
w: 4.~Teach|us, O|Lord, how *|frail is|man; And|kind- ly|length- en|out our|span,|
 D,4 D,4 A,,4 | D,8 D,4 | D,8 G,4 | A,8 G,4 | F,8 F,4 | C,8 (C,2 F,2) | A,8 A,,4 | D,8 :| %17
w: Till a wise|care of|pi- e-|ty Fit|us to|die, and *|dwell with|thee.|

